X: 405
T: Meeting of the Waters, The
R: march
I: scale 0.8
M: C
L: 1/4
K: A
P: A drone 1st time
EF|"A"A2Ac|E2AG|"D"D>AFD|"A"E2AB|ceEe|"Bm"dcBA|"D"c3d/2c/|"E"B2EF|
A2Ac|E2AG|"D"F>AFD|"A"EAB|"Bm"cedc|"E"dEGB|"A"A2"D"A>G|"A"A2cd|
"A"e>dce|"F#m"A2cA|"D"F>AFD|"E"E2AB|"A"ceEe|"Bm"dcBA|"D"c3d/2c/2|"E"B2cd|
"A"e>dce|"F#m"A2cA|"D"F>AFD|"E/B"E2"E"AB|"A"cedc|"E"dEGB|"A"A2"D"A>G|"A"A4|]
%%newpage
%%textfont * 14
%%begintext justify
%%48 Bar Jigs
%%endtext
